app/component-library/components/Icons/Icon/assets/scan.svg

<svg width="24" height="24" viewBox="0 0 24 24" fill="none" xmlns="http://www.w3.org/2000/svg">
<path d="M3.05125 10C2.62125 10 2.28125 9.66 2.28125 9.23V6.92C2.28125 4.21 4.49125 2 7.20125 2H9.51125C9.94125 2 10.2812 2.34 10.2812 2.77C10.2812 3.2 9.94125 3.54 9.51125 3.54H7.20125C5.33125 3.54 3.82125 5.06 3.82125 6.92V9.23C3.82125 9.66 3.47125 10 3.05125 10Z" fill="currentColor"/>
<path d="M21.5112 10C21.0912 10 20.7412 9.66 20.7412 9.23V6.92C20.7412 5.05 19.2213 3.54 17.3612 3.54H15.0513C14.6213 3.54 14.2812 3.19 14.2812 2.77C14.2812 2.35 14.6213 2 15.0513 2H17.3612C20.0712 2 22.2812 4.21 22.2812 6.92V9.23C22.2812 9.66 21.9412 10 21.5112 10Z" fill="currentColor"/>
<path d="M17.3612 22.0002H15.9712C15.5512 22.0002 15.2012 21.6602 15.2012 21.2302C15.2012 20.8102 15.5412 20.4602 15.9712 20.4602H17.3612C19.2312 20.4602 20.7412 18.9402 20.7412 17.0802V15.7002C20.7412 15.2802 21.0812 14.9302 21.5112 14.9302C21.9312 14.9302 22.2812 15.2702 22.2812 15.7002V17.0802C22.2812 19.7902 20.0712 22.0002 17.3612 22.0002Z" fill="currentColor"/>
<path d="M9.51125 22H7.20125C4.49125 22 2.28125 19.79 2.28125 17.08V14.77C2.28125 14.34 2.62125 14 3.05125 14C3.48125 14 3.82125 14.34 3.82125 14.77V17.08C3.82125 18.95 5.34125 20.46 7.20125 20.46H9.51125C9.93125 20.46 10.2812 20.8 10.2812 21.23C10.2812 21.66 9.94125 22 9.51125 22Z" fill="currentColor"/>
<path d="M18.7412 11.23H5.82125C5.39125 11.23 5.05125 11.58 5.05125 12C5.05125 12.42 5.39125 12.77 5.82125 12.77H18.7412C19.1712 12.77 19.5112 12.42 19.5112 12C19.5112 11.58 19.1712 11.23 18.7412 11.23Z" fill="currentColor"/>
<path d="M7.18125 13.94V14.27C7.18125 15.93 8.52125 17.27 10.1812 17.27H14.3813C16.0413 17.27 17.3813 15.93 17.3813 14.27V13.94C17.3813 13.82 17.2912 13.73 17.1712 13.73H7.39125C7.27125 13.73 7.18125 13.82 7.18125 13.94Z" fill="currentColor"/>
<path d="M7.18125 10.06V9.73C7.18125 8.07 8.52125 6.73 10.1812 6.73H14.3813C16.0413 6.73 17.3813 8.07 17.3813 9.73V10.06C17.3813 10.18 17.2912 10.27 17.1712 10.27H7.39125C7.27125 10.27 7.18125 10.18 7.18125 10.06Z" fill="currentColor"/>
</svg>

<svg xmlns="http://www.w3.org/2000/svg" width="24" height="24" viewBox="0 0 24 24" fill="none"><path fill="currentColor" d="M3.051 10c-.43 0-.77-.34-.77-.77V6.92A4.93 4.93 0 0 1 7.201 2h2.31c.43 0 .77.34.77.77s-.34.77-.77.77h-2.31c-1.87 0-3.38 1.52-3.38 3.38v2.31c0 .43-.35.77-.77.77ZM21.511 10a.77.77 0 0 1-.77-.77V6.92c0-1.87-1.52-3.38-3.38-3.38h-2.31a.77.77 0 0 1 0-1.54h2.31a4.93 4.93 0 0 1 4.92 4.92v2.31c0 .43-.34.77-.77.77ZM17.361 22h-1.39a.77.77 0 0 1 0-1.54h1.39c1.87 0 3.38-1.52 3.38-3.38V15.7a.77.77 0 0 1 1.54 0v1.38a4.93 4.93 0 0 1-4.92 4.92ZM9.511 22h-2.31a4.93 4.93 0 0 1-4.92-4.92v-2.31c0-.43.34-.77.77-.77s.77.34.77.77v2.31c0 1.87 1.52 3.38 3.38 3.38h2.31a.77.77 0 0 1 0 1.54ZM18.741 11.23H5.821a.77.77 0 0 0 0 1.54h12.92a.77.77 0 0 0 0-1.54ZM7.181 13.94v.33c0 1.66 1.34 3 3 3h4.2c1.66 0 3-1.34 3-3v-.33c0-.12-.09-.21-.21-.21h-9.78c-.12 0-.21.09-.21.21ZM7.181 10.06v-.33c0-1.66 1.34-3 3-3h4.2c1.66 0 3 1.34 3 3v.33c0 .12-.09.21-.21.21h-9.78c-.12 0-.21-.09-.21-.21Z"/></svg>
